!!!OTL: 121. Freylekhs (Karahod)
!!!Genre:	Freylekhs (Karahod)
!!!Mode:	Minor
!!!Listening/dance:	dance
!!!One_Mode:	no
**kern
*I"P1
*clefG2
*k[b-e-]
*g:
*M2/4
*>bM
*B-:
*>A
!LO:TX:a:i:t=Bb-major
8dd
=1
(16ddLL
16ee-)
(16ee-
16ddJJ)
(16ddLL
16ee-)
(16ee-
16ddJJ)
=2
(16ddLL
16ee-)
(16ee-
16ddJJ)
(8ddL
16ccL
16b-JJ)
*>A1
=3
8.ccL
16b-Jk
16ffLL
16ee-
16dd
16ee-JJ
=4
4.dd
*>A2
=5:|!
8.ccLL
16b-JJ
16ddLL
16cc
16b-
16aJJ
=6
4.b-
*>eM
*g:
*>B
!LO:TX:a:i:t=G-minor
8a
=7!|:
8gL
16aL
16b-JJ
16ccLL
16dd
(16qqcc/LL
16qqdd/JJ
16cc)
16b-JJ
=8
16ccLL
16dd
16cc
16b-JJ
((8qcc/
16b-LL)
16a)
(16a
16gJJ)
*>B1
=9
8gL
16aL
16b-JJ
16ccLL
16dd
16cc
16b-JJ
=10
8cc
4.dd
*>B2
=11:|!
8.b-L
16aJk
16b-LL
16a
16g
16f#XJJ
=
4.g
*>bM
*B-:
==12
*>C
!LO:TX:a:i:t=Bb-major
8fn
=13
4.ff
8ee-
=14
4.dd
(16ccLL
16b-JJ)
=15
8.ccL
16b-Jk
16ffLL
16ee-
16dd
16ee-JJ
=16
4.dd
8ff
=17
16ffLL
16gg
16aa-X
16ggJJ
16aa-LL
16ggJ
8ffJ
=18
16aa-XLL
16gg
16ff
16ee-JJ
8ddL
16ccL
16b-JJ
=19
8.ccL
16b-Jk
16ffLL
16ee-
16dd
16ee-JJ
=20
4.dd
16ccLL
16b-JJ
=21
[8ccL
16ccL]
16b-JJ
16ddLL
16cc
16b-
16aJJ
=22
4.b-
*>eM
==
*-
